X: 14162
T: From Galway To Dublin
R: hornpipe
M: 4/4
K: Adorian
|:EG|"Am" ~A3B AGEG|"C" cdec "G" d2 eg|"Am" aged cded|"Am" cAGE "G" G2 cB|
"Am" ~A3B AGEG|"C" cdec "G" d2 (3efg|"Am" aged "F" cA"G"GE|"Am" A>A AB A2:|
|:eg|"Am" ~a3g (3efg ed|cdef g2 eg|aged cded|"Am" cAGE "G" G2 cB|
"Am" ~A3B AGEG|"C" cdec "G" d2 (3efg|"Am" aged "F" cA"G"GE|"Am" A>A AB A2:|

